frontend/public/svg/interface/video-camera.svg

<svg width="179" height="96" viewBox="0 0 179 96" fill="none" xmlns="http://www.w3.org/2000/svg">
<g clip-path="url(#clip0)">
<path d="M177.153 27.2275C177.061 25.8082 176.971 24.389 176.881 22.9698C176.71 19.4826 175.462 16.1336 173.308 13.3832C171.218 10.727 168.558 9.6919 165.618 10.3905L164.827 10.5767C162.462 11.1313 160.015 11.7047 157.893 12.8755C154.156 14.9388 150.476 17.2351 146.918 19.4548C145.359 20.4278 143.8 21.4007 142.228 22.3594C142.061 22.4589 141.889 22.549 141.712 22.6293C141.539 21.8419 141.375 21.0601 141.211 20.2856C140.717 17.9465 140.251 15.7379 139.6 13.5292C138.957 11.2214 137.756 9.10663 136.104 7.37052C134.451 5.63444 132.396 4.3301 130.12 3.5724C127.155 2.51186 124.001 1.46636 120.905 1.33728C107.1 0.763229 94.4496 0.432337 82.2312 0.327256C66.6803 0.197526 50.8315 0.339626 37.197 0.487518C30.9241 0.552383 23.5222 0.707406 16.1878 1.32557C9.60697 1.87887 5.37911 5.56062 3.96096 11.9731C3.90249 12.2391 3.81802 12.4998 3.73487 12.7612C3.65172 13.0226 3.56732 13.2886 3.50236 13.5565C1.42353 22.1576 0.79853 31.6332 1.59953 42.5227C2.26086 51.5175 3.22363 60.6362 4.15715 69.4555C4.3737 71.5072 4.59024 73.5595 4.80679 75.6132C5.23295 79.7048 5.7553 83.3639 7.84321 86.7051C11.6111 92.7323 16.8731 95.7861 23.4994 95.7861C23.6222 95.7861 23.7456 95.7861 23.8691 95.7829C28.015 95.7128 32.2279 95.5935 36.3024 95.478C40.7479 95.3528 45.3453 95.2231 49.8654 95.1537C59.9565 95.0039 70.0473 94.8728 80.1387 94.7593C90.1691 94.6387 100.201 94.5083 110.232 94.3701C114.504 94.3053 119.056 94.2028 123.611 93.7014C128.223 93.1935 133.012 92.382 136.454 88.59C138.917 85.8748 141.948 82.5336 142.885 77.6674L143.791 78.1118C144.851 78.6307 145.777 79.0847 146.714 79.52L147.851 80.0486C151.979 81.968 156.247 83.9535 160.931 84.6397C166.563 85.4661 170.645 84.7617 173.41 82.4908C175.992 80.371 177.366 76.8955 177.611 71.8666C177.98 64.3236 178.302 56.2401 178.173 48.2332C178.054 41.2226 177.595 34.1083 177.153 27.2275ZM168.831 71.7342C168.748 72.5593 168.579 73.3727 168.326 74.1621C168.255 74.4216 168.183 74.6733 168.117 74.9288C164.113 75.5879 160.794 74.273 157.801 72.7422C154.351 70.9779 150.976 69.0378 147.711 67.1639C146.45 66.44 145.204 65.7245 143.974 65.0298L142.772 30.911C150.69 25.9436 157.944 21.5879 166.067 18.5866C167.599 19.8444 167.845 21.4915 167.96 23.0787C168.929 36.4324 169.905 54.0327 168.831 71.7342ZM15.3575 77.5468C14.9534 74.6746 14.5363 71.7057 14.2609 68.7803C13.9945 65.947 13.7958 63.0549 13.6035 60.2579C13.5106 58.9074 13.4177 57.5562 13.317 56.2064C13.239 55.1595 13.1702 54.1127 13.1014 53.0651C12.9396 50.6126 12.772 48.0755 12.4887 45.5866C11.4434 37.0557 11.518 28.4251 12.7109 19.9134C12.8369 19.0513 13.024 18.1736 13.2052 17.3239C13.3865 16.4742 13.5756 15.5875 13.7068 14.7008C14.0505 12.3877 15.405 11.159 18.1003 10.7192C20.9145 10.258 23.6781 9.82488 26.3149 9.42985C32.2284 8.61781 38.1944 8.24769 44.163 8.32261C45.0522 8.32261 45.9339 8.32676 46.8083 8.335C55.466 8.40764 64.2679 8.36289 72.7797 8.31878C80.878 8.27727 89.2512 8.23446 97.484 8.29348C104.89 8.34602 112.5 8.92254 119.047 9.46092C121.407 9.75839 123.727 10.3243 125.959 11.1475L126.609 11.3591C127.848 11.6984 128.965 12.3795 129.834 13.3246C130.702 14.2697 131.286 15.4403 131.519 16.7019C132.195 19.9237 132.701 23.1789 133.035 26.4538C133.626 33.0583 134.13 39.6781 134.574 45.5192C134.737 47.6539 134.891 49.6876 135.04 51.5797L134.724 57.867C134.461 63.136 134.235 67.6341 133.984 72.1312C133.947 73.3001 133.778 74.4605 133.481 75.5911C132.161 80.0337 129.723 82.4726 126.028 83.0473C122.765 83.5422 119.472 83.8205 116.172 83.8802C104.199 84.1345 92.0232 84.3628 80.2472 84.5833C69.6673 84.7812 59.0881 84.9861 48.509 85.1989C44.3994 85.2839 40.2269 85.4473 36.1913 85.6056C33.5226 85.7094 30.8546 85.8145 28.1852 85.8981C27.2212 85.9273 26.2233 85.8878 25.2619 85.8475C24.6928 85.8242 24.1243 85.8002 23.5559 85.7898C18.7031 85.7022 15.959 81.8532 15.4621 78.3135L15.3575 77.5468Z" fill="black"/>
</g>
<defs>
<clipPath id="clip0">
<rect width="178" height="96" fill="white" transform="translate(0.777344)"/>
</clipPath>
</defs>
</svg>

<svg xmlns="http://www.w3.org/2000/svg" width="179" height="96" fill="none" viewBox="0 0 179 96"><g clip-path="url(#a)"><path fill="#000" d="m177.153 27.228-.272-4.258a16.9 16.9 0 0 0-3.573-9.587c-2.09-2.656-4.75-3.691-7.69-2.992l-.791.186c-2.365.554-4.812 1.128-6.934 2.299-3.737 2.063-7.417 4.36-10.975 6.579a534 534 0 0 1-4.69 2.904q-.25.15-.516.27c-.173-.787-.337-1.569-.501-2.343-.494-2.34-.96-4.548-1.611-6.757a14.63 14.63 0 0 0-9.48-9.957c-2.965-1.06-6.119-2.106-9.215-2.235C107.1.763 94.45.432 82.231.327c-15.55-.13-31.4.013-45.034.16-6.273.065-13.675.22-21.01.839C9.608 1.879 5.38 5.56 3.962 11.973c-.059.266-.143.527-.226.788-.083.262-.168.528-.233.796C1.424 22.157.8 31.633 1.6 42.523c.66 8.994 1.624 18.113 2.557 26.932l.65 6.158c.426 4.092.948 7.75 3.036 11.092 3.768 6.027 9.03 9.081 15.656 9.081q.185 0 .37-.003c4.146-.07 8.359-.19 12.433-.305 4.446-.125 9.043-.255 13.563-.324q15.136-.225 30.274-.395 15.046-.18 30.093-.389c4.272-.065 8.824-.167 13.379-.669 4.612-.507 9.401-1.319 12.843-5.111 2.463-2.715 5.494-6.056 6.431-10.923l.906.445c1.06.519 1.986.973 2.923 1.408l1.137.529c4.128 1.919 8.396 3.904 13.08 4.59 5.632.827 9.714.123 12.479-2.148 2.582-2.12 3.956-5.596 4.201-10.624.369-7.543.691-15.627.562-23.634-.119-7.01-.578-14.125-1.02-21.005m-8.322 44.506a12 12 0 0 1-.505 2.428c-.071.26-.143.511-.209.767-4.004.659-7.323-.656-10.316-2.187-3.45-1.764-6.825-3.704-10.09-5.578-1.261-.724-2.507-1.44-3.737-2.134l-1.202-34.119c7.918-4.967 15.172-9.323 23.295-12.324 1.532 1.257 1.778 2.904 1.893 4.492.969 13.353 1.945 30.954.871 48.655M15.358 77.547c-.405-2.872-.822-5.841-1.097-8.767-.266-2.833-.465-5.725-.657-8.522q-.137-2.026-.287-4.052a358 358 0 0 1-.216-3.14c-.161-2.453-.329-4.99-.612-7.48a98.6 98.6 0 0 1 .222-25.673c.126-.862.313-1.74.494-2.59s.37-1.735.502-2.622c.343-2.313 1.698-3.542 4.393-3.982 2.814-.461 5.578-.894 8.215-1.29a120 120 0 0 1 17.848-1.106q1.334 0 2.645.012c8.658.073 17.46.028 25.972-.016 8.098-.042 16.471-.085 24.704-.026 7.406.053 15.016.63 21.563 1.168 2.36.297 4.68.863 6.912 1.687l.65.211a6.83 6.83 0 0 1 4.91 5.343 94 94 0 0 1 1.516 9.752c.591 6.604 1.095 13.224 1.539 19.065.163 2.135.317 4.169.466 6.06l-.316 6.288c-.263 5.269-.489 9.767-.74 14.264a15.6 15.6 0 0 1-.503 3.46c-1.32 4.443-3.758 6.882-7.453 7.456a75 75 0 0 1-9.856.833c-11.973.255-24.149.483-35.925.703q-15.87.297-31.738.616c-4.11.085-8.282.248-12.318.407-2.668.103-5.336.209-8.006.292-.964.03-1.962-.01-2.923-.05-.57-.024-1.138-.048-1.706-.058-4.853-.088-7.597-3.937-8.094-7.477z"/></g><defs><clipPath id="a"><path fill="#fff" d="M.777 0h178v96h-178z"/></clipPath></defs></svg>
